X: 02112
T: REEL \`A M'GUNKY
C: Bob McQuillen May'75
B: Bob's Note Book 1&2 #112
R: reel
Z: 2019 John Chambers <jc:trillian.mit.edu>
M: C
L: 1/8
K: A
E2 \
| A2AE CEAc | BAGB A2Bc | dedc BcAB | B2E2 EdcB |
| A2AE CEAc | BAGB A2Bc | defg afed | c2A2 A2 :|
|: GA \
| BABc BGAB | c2A2 A2Bc | dcde dBcd | e2c2 c2de |
| f2d2 defd | e2c2 ceae | fagf edcB | c2A2 A2 :|
%%begintext align
%% [drawing of a skiing stick figure]
%%endtext

%%sep 1 1 500

%%sep 1 1 500

